Phone repair/img/battery-status.svg

<svg width="30" height="30" viewBox="0 0 30 30" fill="none" xmlns="http://www.w3.org/2000/svg">
<g clip-path="url(#clip0_51_720)">
<path d="M12.1875 0.9375L12.1875 1.875L11.25 1.875C10.7322 1.875 10.3125 2.29471 10.3125 2.8125L10.3125 3.75L9.375 3.75C8.33947 3.75 7.5 4.58947 7.5 5.625L7.5 28.125C7.5 29.1605 8.33947 30 9.375 30L20.625 30C21.6605 30 22.5 29.1605 22.5 28.125L22.5 5.625C22.5 4.58947 21.6605 3.75 20.625 3.75L19.6875 3.75L19.6875 2.8125C19.6875 2.29471 19.2678 1.875 18.75 1.875L17.8125 1.875L17.8125 0.9375C17.8125 0.419706 17.3928 1.1797e-07 16.875 1.11796e-07L13.125 6.70775e-08C12.6072 6.09028e-08 12.1875 0.419706 12.1875 0.9375ZM11.25 5.625L20.625 5.625L20.625 18.75L9.375 18.75L9.375 5.625L11.25 5.625Z" fill="#FF005C"/>
</g>
<defs>
<clipPath id="clip0_51_720">
<rect width="30" height="30" fill="white" transform="translate(0 30) rotate(-90)"/>
</clipPath>
</defs>
</svg>

<svg width="30" height="30" fill="none" xmlns="http://www.w3.org/2000/svg"><g clip-path="url(#a)"><path d="M12.188.938v.937h-.938a.937.937 0 0 0-.938.938v.937h-.937c-1.036 0-1.875.84-1.875 1.875v22.5C7.5 29.16 8.34 30 9.375 30h11.25c1.035 0 1.875-.84 1.875-1.875v-22.5c0-1.036-.84-1.875-1.875-1.875h-.938v-.938a.937.937 0 0 0-.937-.937h-.938V.937A.937.937 0 0 0 16.875 0h-3.75a.937.937 0 0 0-.938.938Zm-.938 4.687h9.375V18.75H9.375V5.625h1.875Z" fill="#FF005C"/></g><defs><clipPath id="a"><path fill="#fff" transform="rotate(-90 15 15)" d="M0 0h30v30H0z"/></clipPath></defs></svg>
